X:1
T:Christ Is Waiting
T:Christ Is Waiting
T:Orlando S. Grinnell
T:Orlando S. Grinnell, 1885
T:Public Domain Courtesy of the Cyber Hymnal™
T:Public Domain Courtesy of the Cyber Hymnal™
C:Orlando S. Grinnell
Z:Public Domain
Z:Courtesy of the Cyber Hymnal™
%%score ( 1 2 ) ( 3 4 )
L:1/8
Q:1/4=105
M:6/8
K:A
V:1 treble 
V:2 treble 
V:3 bass 
V:4 bass 
V:1
 [CE] | [CE]2 [CE] [DF]2 [CE] | [CA]2 [DB] [Ec]2 [Ec] | [DB]2 [DB] ([DB][CA])[DB] | %4
w: 1.~O|sin- ner, list- en|while you may, For|Christ can wash * your|
w: 2.~Oh,|come to Christ! do|not de- lay, But|seek His par- * don|
w: 3.~Just|as you are, oh|hast- en now! Con-|fess your sins * and|
w: 4.~Oh!|can it be you|will re- fuse To|list- en to * such|
 (dc)[EB] !fermata![Ec]2 [CE] | [CE]2 [CE] [DF]2 [CE] | [EA]2 [EB] [Ec]2 [Ec] | %7
w: sins * a- way; He|bore them all up-|on the cross, To|
w: while * you may; Oh,|come just now, and|do not wait, Un-|
w: hum- * bly bow! His|might- y grace He|will im- part, His|
w: gra- * cious news, And|shut your ears, and|close your eyes, And|
 [DB]2 [DB] ([DB][CA])[EB] | [Ec]2 [DB] [CA]3 ||"^Refrain" [Fd]3 [DF]3 | [CE]3 [EA]3 | %11
w: save you from * e-|ter- nal loss.|||
w: til the Spir- * it|says, “Too late.”|Wait- ing,|wai- ting,|
w: blood will cleanse * your|sin- ful heart.|||
w: die the death * that|ne- ver dies?|||
 [EB]2 [EB] [DB][CA][EB] | [Ec]6 | [Fd]3 [DF]3 | [CE]3 [EA]3 | [DG]2 [DG] [DG][DF][DE] | %16
w: |||||
w: Christ is wait- ing to|save;|Wait- ing,|wai- ting,|Christ is wait- ing to|
w: |||||
w: |||||
 [CA]3- [CA]2 |] %17
w: |
w: save. *|
w: |
w: |
V:2
 x | x6 | x6 | x6 | E2 x4 | x6 | x6 | x6 | x6 || x6 | x6 | x6 | x6 | x6 | x6 | x6 | x5 |] %17
V:3
 [A,,A,] | [A,,A,]2 [A,,A,] [A,,A,]2 [A,,A,] | [A,,A,]2 [A,,A,] [A,,A,]2 [C,A,] | %3
w: ~|~ ~ ~ ~|~ ~ ~ ~|
 [E,G,]2 [E,G,] (G,A,)[E,G,] | (B,A,)[E,G,] !fermata!A,2 [A,,A,] | %5
w: ~ ~ ~ * ~|~ * ~ ~ ~|
 [A,,A,]2 [A,,A,] [A,,A,]2 [A,,A,] | [C,A,]2 [E,G,] A,2 A, | [E,G,]2 [E,G,] (G,A,)[E,G,] | %8
w: ~ ~ ~ ~|~ ~ ~ ~|~ ~ ~ * ~|
 [E,A,]2 [E,G,] [A,,A,]3 || [D,A,]2 [D,A,] [D,A,]2 [D,A,] | [A,,A,]2 [A,,A,] [C,A,]2 [C,A,] | %11
w: ~ ~ ~|Wait- ing, wait- ing,|Christ is wait- ing,|
 [E,G,]2 [E,G,] [E,G,][E,A,][E,G,] | A,2 A, A,3 | [D,A,]2 [D,A,] [D,A,]2 [D,A,] | %14
w: ~ ~ ~ ~ ~|~ to- day;|Wait- ing, wait- ing,|
 [A,,A,]2 [A,,A,] [C,A,]2 [C,A,] | [E,A,]2 [E,B,] [E,B,][E,B,][E,G,] | [A,,A,]3- [A,,A,]2 |] %17
w: Christ is wait- ing,|||
V:4
 x | x6 | x6 | x3 E,2 x | E,2 A,2 x2 | x6 | x3 A,2 A, | x3 E,2 x | x6 || x6 | x6 | x6 | %12
 A,2 A, A,3 | x6 | x6 | x6 | x5 |] %17

